FlatUX/src/svg/SNK - Neo Geo Pocket Color-content.svg

<svg enable-background="new 0 0 256 256" viewBox="0 0 256 256" xmlns="http://www.w3.org/2000/svg"><path d="m240 28h-224v198.345c.442.976 1.411 1.655 2.548 1.655h218.903c1.137 0 2.107-.679 2.548-1.655v-198.345z" fill="#2b3e51"/><path d="m15.742 28c-3.742 8-3.742 16-3.742 20s0 8 3.742 8h224.516c3.742 0 3.742-4 3.742-8s0-12-3.742-20z" fill="#35495f"/><path d="m37.76 78h180.48c2.077 0 3.76 1.584 3.76 3.538v84.923c0 1.954-1.683 3.538-3.76 3.538h-180.48c-2.077 0-3.76-1.584-3.76-3.538v-84.923c0-1.954 1.683-3.538 3.76-3.538z" fill="#223140"/><path d="m113.362 196h29.276c1.153 0 1.782 1.325 1.044 2.198l-14.638 17.319c-.543.643-1.545.643-2.089 0l-14.638-17.319c-.737-.873-.108-2.198 1.045-2.198z" fill="#223140"/><path d="m39.833 80h176.333c2.117 0 3.833 1.642 3.833 3.667v80.667c0 2.025-1.716 3.667-3.833 3.667h-176.333c-2.117 0-3.833-1.642-3.833-3.667v-80.667c0-2.025 1.716-3.667 3.833-3.667z" fill="#1b80bb"/><g fill="#223140"><path d="m32 34h192v2h-192z"/><path d="m32 38h192v2h-192z"/><path d="m32 42h192v2h-192z"/><path d="m32 46h192v2h-192z"/><path d="m32 50h192v2h-192z"/><path d="m32 54h192v2h-192z"/><path d="m36 58h184v2h-184z"/><path d="m36 62h184v2h-184z"/><path d="m36 66h184v2h-184z"/><path d="m156 196h72v24h-72z"/><path d="m28 196h72v24h-72z"/><path d="m15.742 179.84h224.516v4.833h-224.516z"/></g></svg>

<svg xmlns="http://www.w3.org/2000/svg" viewBox="0 0 256 256"><path fill="#2b3e51" d="M240 28H16v198.345A2.8 2.8 0 0 0 18.548 228h218.903a2.79 2.79 0 0 0 2.548-1.655V28z"/><path fill="#35495f" d="M15.742 28C12 36 12 44 12 48s0 8 3.742 8h224.516C244 56 244 52 244 48s0-12-3.742-20z"/><path fill="#223140" d="M37.76 78h180.48c2.077 0 3.76 1.584 3.76 3.538v84.923c0 1.954-1.683 3.538-3.76 3.538H37.76c-2.077 0-3.76-1.584-3.76-3.538V81.538C34 79.584 35.683 78 37.76 78m75.602 118h29.276c1.153 0 1.782 1.325 1.044 2.198l-14.638 17.319a1.372 1.372 0 0 1-2.089 0l-14.638-17.319c-.737-.873-.108-2.198 1.045-2.198"/><path fill="#1b80bb" d="M39.833 80h176.333c2.117 0 3.833 1.642 3.833 3.667v80.667c0 2.025-1.716 3.667-3.833 3.667H39.833c-2.117 0-3.833-1.642-3.833-3.667V83.667C36 81.642 37.716 80 39.833 80"/><path fill="#223140" d="M32 34h192v2H32zm0 4h192v2H32zm0 4h192v2H32zm0 4h192v2H32zm0 4h192v2H32zm0 4h192v2H32zm4 4h184v2H36zm0 4h184v2H36zm0 4h184v2H36zm120 130h72v24h-72zm-128 0h72v24H28zm-12.258-16.16h224.516v4.833H15.742z"/></svg>
